X:6944
T:Hearty Boys of Ballymote, The
R:jig
H:Also played in Edor, #343
H:Originally () Scottish: "The Laccarue Boys", "Bonnie Dundee"
H:or "Adew Dundee"
D:De Danann: Song for Ireland
D:Jerry Holland: The Fiddlesticks Collection
Z:id:hn-jig-141
M:6/8
K:Ador
B|:cAA EAA|~B3 GBd|cAA EAA|BAG A2B|
cAA EAA|~B3 GBd|edc ege|1 dBG A2B:|2 dBG A2f||
|:~g3 gfe|dBG Bcd|eaa aga|bag e2d|
~g3 gfe|dBG Bcd|eaa ege|1 dBG A2f:|2 dBG A2B||
